svg/fluentui-system-icons/ic_fluent_door_tag_20_regular.svg

<svg width="20" height="20" viewBox="0 0 20 20" fill="none" xmlns="http://www.w3.org/2000/svg">
<path d="M9.29312 6.29289C9.68364 5.90237 10.3168 5.90237 10.7073 6.29289C11.0979 6.68342 11.0979 7.31658 10.7073 7.70711C10.512 7.90243 10.256 8.00006 10 8H7C5.89543 8 5 8.89543 5 10V16C5 17.1046 5.89543 18 7 18H13C14.1046 18 15 17.1046 15 16V7.04768C15.0123 5.75222 14.5242 4.4529 13.5358 3.46447C11.5831 1.51184 8.41731 1.51184 6.46469 3.46447C5.68364 4.24551 5.68364 5.51184 6.46469 6.29289C7.24574 7.07394 8.51207 7.07394 9.29312 6.29289ZM11.4144 8.41421C12.1955 7.63316 12.1955 6.36683 11.4144 5.58579C10.6334 4.80474 9.36706 4.80474 8.58601 5.58579C8.19549 5.97631 7.56232 5.97631 7.1718 5.58579C6.78128 5.19526 6.78128 4.5621 7.1718 4.17157C8.7339 2.60948 11.2666 2.60948 12.8287 4.17157C13.6061 4.94898 13.9966 5.96676 14.0002 6.98567L14 7V16C14 16.5523 13.5523 17 13 17H7C6.44772 17 6 16.5523 6 16V10C6 9.44772 6.44772 9 7 9L10.0015 9C10.5129 8.99968 11.0242 8.80441 11.4144 8.41421ZM8 14C7.72386 14 7.5 14.2239 7.5 14.5C7.5 14.7761 7.72386 15 8 15H12C12.2761 15 12.5 14.7761 12.5 14.5C12.5 14.2239 12.2761 14 12 14H8Z" fill="#212121"/>
</svg>

<svg xmlns="http://www.w3.org/2000/svg" width="20" height="20"><path d="M9.293 6.293A1 1 0 1 1 10 8H7a2 2 0 0 0-2 2v6a2 2 0 0 0 2 2h6a2 2 0 0 0 2-2V7.048a5 5 0 0 0-8.535-3.583 2 2 0 1 0 2.828 2.828Zm2.121 2.121a2 2 0 1 0-2.828-2.828 1 1 0 0 1-1.414-1.414A4 4 0 0 1 14 6.986V16a1 1 0 0 1-1 1H7a1 1 0 0 1-1-1v-6a1 1 0 0 1 1-1h3.002c.51 0 1.022-.196 1.412-.586ZM8 14a.5.5 0 0 0 0 1h4a.5.5 0 0 0 0-1H8Z"/></svg>
